icons/svg/tourist_colored/cannon.svg

<?xml version="1.0" encoding="UTF-8" standalone="no"?>
<!-- Created with Inkscape (http://www.inkscape.org/) -->

<svg
   xmlns:dc="http://purl.org/dc/elements/1.1/"
   xmlns:cc="http://creativecommons.org/ns#"
   xmlns:rdf="http://www.w3.org/1999/02/22-rdf-syntax-ns#"
   xmlns:svg="http://www.w3.org/2000/svg"
   xmlns="http://www.w3.org/2000/svg"
   xmlns:sodipodi="http://sodipodi.sourceforge.net/DTD/sodipodi-0.dtd"
   xmlns:inkscape="http://www.inkscape.org/namespaces/inkscape"
   version="1.0"
   width="580"
   height="580"
   id="svg2"
   sodipodi:version="0.32"
   inkscape:version="0.48.4 r9939"
   sodipodi:docname="cannon.svg"
   inkscape:output_extension="org.inkscape.output.svg.inkscape">
  <metadata
     id="metadata10">
    <rdf:RDF>
      <cc:Work
         rdf:about="">
        <dc:format>image/svg+xml</dc:format>
        <dc:type
           rdf:resource="http://purl.org/dc/dcmitype/StillImage" />
        <cc:license
           rdf:resource="http://web.resource.org/cc/PublicDomain" />
        <dc:language>en</dc:language>
        <dc:title></dc:title>
      </cc:Work>
    </rdf:RDF>
  </metadata>
  <sodipodi:namedview
     inkscape:window-height="1004"
     inkscape:window-width="1920"
     inkscape:pageshadow="2"
     inkscape:pageopacity="0.0"
     guidetolerance="10.0"
     gridtolerance="10.0"
     objecttolerance="10.0"
     borderopacity="1.0"
     bordercolor="#666666"
     pagecolor="#ffffff"
     id="base"
     showgrid="false"
     inkscape:zoom="1.5931034"
     inkscape:cx="302.42544"
     inkscape:cy="213.91667"
     inkscape:window-x="1680"
     inkscape:window-y="0"
     inkscape:current-layer="svg2"
     inkscape:window-maximized="1" />
  <defs
     id="defs4">
    <inkscape:perspective
       sodipodi:type="inkscape:persp3d"
       inkscape:vp_x="0 : 290 : 1"
       inkscape:vp_y="0 : 1000 : 0"
       inkscape:vp_z="580 : 290 : 1"
       inkscape:persp3d-origin="290 : 193.33333 : 1"
       id="perspective12" />
    <inkscape:perspective
       id="perspective2539"
       inkscape:persp3d-origin="16 : 10.666667 : 1"
       inkscape:vp_z="32 : 16 : 1"
       inkscape:vp_y="0 : 1000 : 0"
       inkscape:vp_x="0 : 16 : 1"
       sodipodi:type="inkscape:persp3d" />
    <inkscape:perspective
       id="perspective2550"
       inkscape:persp3d-origin="372.04724 : 350.78739 : 1"
       inkscape:vp_z="744.09448 : 526.18109 : 1"
       inkscape:vp_y="0 : 1000 : 0"
       inkscape:vp_x="0 : 526.18109 : 1"
       sodipodi:type="inkscape:persp3d" />
    <inkscape:perspective
       id="perspective2563"
       inkscape:persp3d-origin="372.04724 : 350.78739 : 1"
       inkscape:vp_z="744.09448 : 526.18109 : 1"
       inkscape:vp_y="0 : 1000 : 0"
       inkscape:vp_x="0 : 526.18109 : 1"
       sodipodi:type="inkscape:persp3d" />
  </defs>
  <g
     id="g1327">
    <path
       d="M 66.275,1.768 C 24.94,1.768 1.704,23.139 1.704,66.804 L 1.704,516.927 C 1.704,557.771 22.598,579.156 63.896,579.156 L 515.92,579.156 C 557.227,579.156 578.149,558.84 578.149,516.927 L 578.149,66.804 C 578.149,24.203 557.227,1.768 514.627,1.768 C 514.624,1.768 66.133,1.625 66.275,1.768 z"
       style="fill:#111111;stroke:#eeeeee;stroke-width:3.40799999"
       id="path1329" />
  </g>
  <path
     style="fill:#ffffff;fill-opacity:1"
     inkscape:connector-curvature="0"
     d="m 234.32995,321.98697 c 42.8981,0 77.79619,34.89809 77.79619,77.79619 0,42.8981 -34.89809,77.79619 -77.79619,77.79619 -42.90911,0 -77.77415,-34.89809 -77.77415,-77.79619 0,-42.8981 34.86504,-77.79619 77.77415,-77.79619 m 0.0111,-20.40773 c -54.24796,0 -98.20392,43.96697 -98.20392,98.20392 0,54.23695 43.95596,98.20392 98.20392,98.20392 54.24797,0 98.20392,-43.96697 98.20392,-98.20392 0,-54.23695 -43.95595,-98.20392 -98.20392,-98.20392 l 0,0 z"
     id="path5" />
  <path
     style="fill:#ffffff;fill-opacity:1"
     inkscape:connector-curvature="0"
     d="m 305.66884,430.0201 -35.5923,-23.50415 c 0.40771,-2.19284 0.6832,-4.42976 0.6832,-6.73279 0,-2.30303 -0.26447,-4.53995 -0.6832,-6.73279 l 35.5923,-23.50414 c 2.46832,-1.67493 5.69698,-6.74381 2.29202,-12.62812 -3.41599,-5.91736 -9.44353,-5.70799 -12.12123,-4.37466 l -38.18183,19.51517 c -3.23967,-2.73278 -6.92012,-4.91461 -10.97522,-6.39118 l -2.20385,-42.76587 c -0.19835,-2.98623 -3.01928,-8.30854 -9.86228,-8.30854 -6.78787,0 -9.57575,5.31129 -9.79614,8.30854 l -2.54545,42.66668 c -4.30855,1.52067 -8.18735,3.79065 -11.58129,6.68871 L 172.45664,353.1385 c -2.6887,-1.30028 -8.70524,-1.55372 -12.09917,4.34161 -3.42702,5.90634 -0.2204,11.01929 2.26996,12.67218 l 35.88984,23.25069 c -0.35264,2.07163 -0.63913,4.18734 -0.63913,6.38018 0,2.19284 0.27549,4.30854 0.65015,6.39119 l -35.88983,23.2507 c -2.49037,1.65289 -5.69698,6.76586 -2.26999,12.67219 3.39395,5.8843 9.41048,5.64187 12.09919,4.3416 l 38.23693,-19.11847 c 3.39395,2.9091 7.27273,5.17906 11.58128,6.68871 l 2.54546,42.66669 c 0.22038,2.98623 2.99725,8.30855 9.79615,8.30855 6.83197,0 9.66392,-5.3113 9.86226,-8.30855 l 2.20386,-42.76585 c 4.0551,-1.47659 7.73554,-3.65842 10.97522,-6.3912 l 38.18183,19.51516 c 2.66668,1.32231 8.70524,1.53168 12.12123,-4.37466 3.38292,-5.89532 0.15426,-10.9642 -2.30304,-12.63912 z m -71.3499,-12.91462 c -9.57577,0 -17.32233,-7.75757 -17.32233,-17.32232 0,-9.56475 7.74656,-17.32232 17.32233,-17.32232 9.55373,0 17.3113,7.75757 17.3113,17.32232 0,9.56475 -7.75757,17.32232 -17.3113,17.32232 z"
     id="path7" />
  <path
     style="fill:none;stroke:#ffffff;stroke-width:50;stroke-linecap:butt;stroke-linejoin:miter;stroke-miterlimit:4;stroke-opacity:1;stroke-dasharray:none"
     d="m 32.845264,443.29269 74.567626,-5.32626 86.10785,-161.56318"
     id="path3774"
     inkscape:connector-curvature="0"
     sodipodi:nodetypes="ccc" />
  <path
     style="font-size:medium;font-style:normal;font-variant:normal;font-weight:normal;font-stretch:normal;text-indent:0;text-align:start;text-decoration:none;line-height:normal;letter-spacing:normal;word-spacing:normal;text-transform:none;direction:ltr;block-progression:tb;writing-mode:lr-tb;text-anchor:start;baseline-shift:baseline;color:#000000;fill:#ffffff;fill-opacity:1;fill-rule:nonzero;stroke:none;stroke-width:50;marker:none;visibility:visible;display:inline;overflow:visible;enable-background:accumulate;font-family:Sans;-inkscape-font-specification:Sans"
     d="m 70.931779,287.66712 c -34.10866,-19.1477 -32.690804,51.18044 3.002807,29.5786 10.273842,31.62704 29.757294,30.63621 61.821094,26.89669 0,0 370.55868,-51.69455 393.29859,-52.36088 22.73991,-0.66633 30.08762,6.17025 30.08762,6.17025 -3.27526,-33.77365 -2.87707,-28.42566 -7.10102,-71.7835 0,0 -12.32432,7.53826 -28.1824,10.22551 -15.85809,2.68725 -396.5958,11.93749 -396.5958,11.93749 -36.100087,-1.15344 -54.385983,8.99681 -56.330891,39.33584 z"
     id="rect3776"
     inkscape:connector-curvature="0"
     sodipodi:nodetypes="ccczcczcc" />
  <path
     style="font-size:medium;font-style:normal;font-variant:normal;font-weight:normal;font-stretch:normal;text-indent:0;text-align:start;text-decoration:none;line-height:normal;letter-spacing:normal;word-spacing:normal;text-transform:none;direction:ltr;block-progression:tb;writing-mode:lr-tb;text-anchor:start;baseline-shift:baseline;color:#000000;fill:#ffffff;fill-opacity:1;fill-rule:nonzero;stroke:none;stroke-width:50;marker:none;visibility:visible;display:inline;overflow:visible;enable-background:accumulate;font-family:Sans;-inkscape-font-specification:Sans"
     d="m 388.86012,471.20914 c -12.0862,0 -22.16748,10.08129 -22.16748,22.16748 0,12.0862 10.08128,22.16748 22.16748,22.16748 12.08619,0 22.16748,-10.08128 22.16748,-22.16748 0,-12.08619 -10.08129,-22.16748 -22.16748,-22.16748 z"
     id="path3787"
     inkscape:connector-curvature="0"
     sodipodi:nodetypes="sssss" />
  <path
     style="font-size:medium;font-style:normal;font-variant:normal;font-weight:normal;font-stretch:normal;text-indent:0;text-align:start;text-decoration:none;line-height:normal;letter-spacing:normal;word-spacing:normal;text-transform:none;direction:ltr;block-progression:tb;writing-mode:lr-tb;text-anchor:start;baseline-shift:baseline;color:#000000;fill:#ffffff;fill-opacity:1;fill-rule:nonzero;stroke:none;stroke-width:50;marker:none;visibility:visible;display:inline;overflow:visible;enable-background:accumulate;font-family:Sans;-inkscape-font-specification:Sans"
     d="m 433.00991,471.20914 c -12.0862,0 -22.16748,10.08129 -22.16748,22.16748 0,12.0862 10.08128,22.16748 22.16748,22.16748 12.08619,0 22.16748,-10.08128 22.16748,-22.16748 0,-12.08619 -10.08129,-22.16748 -22.16748,-22.16748 z"
     id="path3787-2"
     inkscape:connector-curvature="0"
     sodipodi:nodetypes="sssss" />
  <path
     style="font-size:medium;font-style:normal;font-variant:normal;font-weight:normal;font-stretch:normal;text-indent:0;text-align:start;text-decoration:none;line-height:normal;letter-spacing:normal;word-spacing:normal;text-transform:none;direction:ltr;block-progression:tb;writing-mode:lr-tb;text-anchor:start;baseline-shift:baseline;color:#000000;fill:#ffffff;fill-opacity:1;fill-rule:nonzero;stroke:none;stroke-width:50;marker:none;visibility:visible;display:inline;overflow:visible;enable-background:accumulate;font-family:Sans;-inkscape-font-specification:Sans"
     d="m 477.1597,471.20914 c -12.0862,0 -22.16748,10.08129 -22.16748,22.16748 0,12.0862 10.08128,22.16748 22.16748,22.16748 12.08619,0 22.16748,-10.08128 22.16748,-22.16748 0,-12.08619 -10.08129,-22.16748 -22.16748,-22.16748 z"
     id="path3787-4"
     inkscape:connector-curvature="0"
     sodipodi:nodetypes="sssss" />
  <path
     style="font-size:medium;font-style:normal;font-variant:normal;font-weight:normal;font-stretch:normal;text-indent:0;text-align:start;text-decoration:none;line-height:normal;letter-spacing:normal;word-spacing:normal;text-transform:none;direction:ltr;block-progression:tb;writing-mode:lr-tb;text-anchor:start;baseline-shift:baseline;color:#000000;fill:#ffffff;fill-opacity:1;fill-rule:nonzero;stroke:none;stroke-width:50;marker:none;visibility:visible;display:inline;overflow:visible;enable-background:accumulate;font-family:Sans;-inkscape-font-specification:Sans"
     d="m 521.30953,471.20914 c -12.0862,0 -22.16748,10.08129 -22.16748,22.16748 0,12.0862 10.08128,22.16748 22.16748,22.16748 12.08619,0 22.16748,-10.08128 22.16748,-22.16748 0,-12.08619 -10.08129,-22.16748 -22.16748,-22.16748 z"
     id="path3787-9"
     inkscape:connector-curvature="0"
     sodipodi:nodetypes="sssss" />
  <path
     style="font-size:medium;font-style:normal;font-variant:normal;font-weight:normal;font-stretch:normal;text-indent:0;text-align:start;text-decoration:none;line-height:normal;letter-spacing:normal;word-spacing:normal;text-transform:none;direction:ltr;block-progression:tb;writing-mode:lr-tb;text-anchor:start;baseline-shift:baseline;color:#000000;fill:#ffffff;fill-opacity:1;fill-rule:nonzero;stroke:none;stroke-width:50;marker:none;visibility:visible;display:inline;overflow:visible;enable-background:accumulate;font-family:Sans;-inkscape-font-specification:Sans"
     d="m 410.93678,433.23295 c -12.0862,0 -22.16748,10.08129 -22.16748,22.16748 0,12.0862 10.08128,22.16748 22.16748,22.16748 12.08619,0 22.16748,-10.08128 22.16748,-22.16748 0,-12.08619 -10.08129,-22.16748 -22.16748,-22.16748 z"
     id="path3787-2-2"
     inkscape:connector-curvature="0"
     sodipodi:nodetypes="sssss" />
  <path
     style="font-size:medium;font-style:normal;font-variant:normal;font-weight:normal;font-stretch:normal;text-indent:0;text-align:start;text-decoration:none;line-height:normal;letter-spacing:normal;word-spacing:normal;text-transform:none;direction:ltr;block-progression:tb;writing-mode:lr-tb;text-anchor:start;baseline-shift:baseline;color:#000000;fill:#ffffff;fill-opacity:1;fill-rule:nonzero;stroke:none;stroke-width:50;marker:none;visibility:visible;display:inline;overflow:visible;enable-background:accumulate;font-family:Sans;-inkscape-font-specification:Sans"
     d="m 455.08657,433.23295 c -12.0862,0 -22.16748,10.08129 -22.16748,22.16748 0,12.0862 10.08128,22.16748 22.16748,22.16748 12.08619,0 22.16748,-10.08128 22.16748,-22.16748 0,-12.08619 -10.08129,-22.16748 -22.16748,-22.16748 z"
     id="path3787-4-3"
     inkscape:connector-curvature="0"
     sodipodi:nodetypes="sssss" />
  <path
     style="font-size:medium;font-style:normal;font-variant:normal;font-weight:normal;font-stretch:normal;text-indent:0;text-align:start;text-decoration:none;line-height:normal;letter-spacing:normal;word-spacing:normal;text-transform:none;direction:ltr;block-progression:tb;writing-mode:lr-tb;text-anchor:start;baseline-shift:baseline;color:#000000;fill:#ffffff;fill-opacity:1;fill-rule:nonzero;stroke:none;stroke-width:50;marker:none;visibility:visible;display:inline;overflow:visible;enable-background:accumulate;font-family:Sans;-inkscape-font-specification:Sans"
     d="m 499.2364,433.23295 c -12.0862,0 -22.16748,10.08129 -22.16748,22.16748 0,12.0862 10.08128,22.16748 22.16748,22.16748 12.08619,0 22.16748,-10.08128 22.16748,-22.16748 0,-12.08619 -10.08129,-22.16748 -22.16748,-22.16748 z"
     id="path3787-9-3"
     inkscape:connector-curvature="0"
     sodipodi:nodetypes="sssss" />
  <path
     style="font-size:medium;font-style:normal;font-variant:normal;font-weight:normal;font-stretch:normal;text-indent:0;text-align:start;text-decoration:none;line-height:normal;letter-spacing:normal;word-spacing:normal;text-transform:none;direction:ltr;block-progression:tb;writing-mode:lr-tb;text-anchor:start;baseline-shift:baseline;color:#000000;fill:#ffffff;fill-opacity:1;fill-rule:nonzero;stroke:none;stroke-width:50;marker:none;visibility:visible;display:inline;overflow:visible;enable-background:accumulate;font-family:Sans;-inkscape-font-specification:Sans"
     d="m 432.69781,395.57062 c -12.0862,0 -22.16748,10.08129 -22.16748,22.16748 0,12.0862 10.08128,22.16748 22.16748,22.16748 12.08619,0 22.16748,-10.08128 22.16748,-22.16748 0,-12.08619 -10.08129,-22.16748 -22.16748,-22.16748 z"
     id="path3787-4-3-7"
     inkscape:connector-curvature="0"
     sodipodi:nodetypes="sssss" />
  <path
     style="font-size:medium;font-style:normal;font-variant:normal;font-weight:normal;font-stretch:normal;text-indent:0;text-align:start;text-decoration:none;line-height:normal;letter-spacing:normal;word-spacing:normal;text-transform:none;direction:ltr;block-progression:tb;writing-mode:lr-tb;text-anchor:start;baseline-shift:baseline;color:#000000;fill:#ffffff;fill-opacity:1;fill-rule:nonzero;stroke:none;stroke-width:50;marker:none;visibility:visible;display:inline;overflow:visible;enable-background:accumulate;font-family:Sans;-inkscape-font-specification:Sans"
     d="m 476.84764,395.57062 c -12.0862,0 -22.16748,10.08129 -22.16748,22.16748 0,12.0862 10.08128,22.16748 22.16748,22.16748 12.08619,0 22.16748,-10.08128 22.16748,-22.16748 0,-12.08619 -10.08129,-22.16748 -22.16748,-22.16748 z"
     id="path3787-9-3-6"
     inkscape:connector-curvature="0"
     sodipodi:nodetypes="sssss" />
  <path
     style="font-size:medium;font-style:normal;font-variant:normal;font-weight:normal;font-stretch:normal;text-indent:0;text-align:start;text-decoration:none;line-height:normal;letter-spacing:normal;word-spacing:normal;text-transform:none;direction:ltr;block-progression:tb;writing-mode:lr-tb;text-anchor:start;baseline-shift:baseline;color:#000000;fill:#ffffff;fill-opacity:1;fill-rule:nonzero;stroke:none;stroke-width:50;marker:none;visibility:visible;display:inline;overflow:visible;enable-background:accumulate;font-family:Sans;-inkscape-font-specification:Sans"
     d="m 454.45888,357.59442 c -12.0862,0 -22.16748,10.08129 -22.16748,22.16748 0,12.0862 10.08128,22.16748 22.16748,22.16748 12.08619,0 22.16748,-10.08128 22.16748,-22.16748 0,-12.08619 -10.08129,-22.16748 -22.16748,-22.16748 z"
     id="path3787-4-3-7-6"
     inkscape:connector-curvature="0"
     sodipodi:nodetypes="sssss" />
</svg>

<svg width="580" height="580" viewBox="0 0 580 580" fill="none" xmlns="http://www.w3.org/2000/svg">
<g clip-path="url(#clip0)">
<path d="M66.275 1.76799C24.94 1.76799 1.704 23.139 1.704 66.804V516.927C1.704 557.771 22.598 579.156 63.896 579.156H515.92C557.227 579.156 578.149 558.84 578.149 516.927V66.804C578.149 24.203 557.227 1.76799 514.627 1.76799C514.624 1.76799 66.133 1.62499 66.275 1.76799Z" fill="#111111" stroke="#EEEEEE" stroke-width="3.408"/>
<path d="M234.33 321.987C277.228 321.987 312.126 356.885 312.126 399.783C312.126 442.681 277.228 477.579 234.33 477.579C191.421 477.579 156.556 442.681 156.556 399.783C156.556 356.885 191.421 321.987 234.33 321.987V321.987ZM234.341 301.579C180.093 301.579 136.137 345.546 136.137 399.783C136.137 454.02 180.093 497.987 234.341 497.987C288.589 497.987 332.545 454.02 332.545 399.783C332.545 345.546 288.589 301.579 234.341 301.579Z" fill="white"/>
<path d="M305.669 430.02L270.077 406.516C270.484 404.323 270.76 402.086 270.76 399.783C270.76 397.48 270.495 395.243 270.077 393.05L305.669 369.546C308.137 367.871 311.366 362.802 307.961 356.918C304.545 351.001 298.517 351.21 295.84 352.543L257.658 372.059C254.418 369.326 250.738 367.144 246.683 365.667L244.479 322.902C244.28 319.915 241.459 314.593 234.616 314.593C227.829 314.593 225.041 319.904 224.82 322.902L222.275 365.568C217.966 367.089 214.088 369.359 210.694 372.257L172.457 353.138C169.768 351.838 163.751 351.585 160.357 357.48C156.93 363.386 160.137 368.499 162.627 370.152L198.517 393.403C198.165 395.475 197.878 397.59 197.878 399.783C197.878 401.976 198.154 404.092 198.528 406.174L162.638 429.425C160.148 431.078 156.941 436.191 160.368 442.097C163.762 447.982 169.779 447.739 172.468 446.439L210.705 427.32C214.099 430.229 217.977 432.499 222.286 434.009L224.831 476.676C225.052 479.662 227.829 484.984 234.627 484.984C241.459 484.984 244.291 479.673 244.49 476.676L246.694 433.91C250.749 432.433 254.429 430.251 257.669 427.519L295.851 447.034C298.517 448.356 304.556 448.566 307.972 442.659C311.355 436.764 308.126 431.695 305.669 430.02V430.02ZM234.319 417.105C224.743 417.105 216.997 409.348 216.997 399.783C216.997 390.218 224.743 382.461 234.319 382.461C243.873 382.461 251.63 390.218 251.63 399.783C251.63 409.348 243.873 417.105 234.319 417.105Z" fill="white"/>
<path d="M32.8453 443.293L107.413 437.966L193.521 276.403" stroke="white" stroke-width="50"/>
<path d="M70.9318 287.667C36.8231 268.519 38.241 338.848 73.9346 317.246C84.2084 348.873 103.692 347.882 135.756 344.142C135.756 344.142 506.314 292.448 529.054 291.782C551.794 291.115 559.142 297.952 559.142 297.952C555.867 264.178 556.265 269.526 552.041 226.168C552.041 226.168 539.717 233.707 523.858 236.394C508 239.081 127.263 248.331 127.263 248.331C91.1626 247.178 72.8767 257.328 70.9318 287.667V287.667Z" fill="white"/>
<path d="M388.86 471.209C376.774 471.209 366.693 481.29 366.693 493.377C366.693 505.463 376.774 515.544 388.86 515.544C400.946 515.544 411.028 505.463 411.028 493.377C411.028 481.29 400.946 471.209 388.86 471.209V471.209Z" fill="white"/>
<path d="M433.01 471.209C420.924 471.209 410.842 481.29 410.842 493.377C410.842 505.463 420.924 515.544 433.01 515.544C445.096 515.544 455.177 505.463 455.177 493.377C455.177 481.29 445.096 471.209 433.01 471.209V471.209Z" fill="white"/>
<path d="M477.16 471.209C465.073 471.209 454.992 481.29 454.992 493.377C454.992 505.463 465.073 515.544 477.16 515.544C489.246 515.544 499.327 505.463 499.327 493.377C499.327 481.29 489.246 471.209 477.16 471.209V471.209Z" fill="white"/>
<path d="M521.31 471.209C509.223 471.209 499.142 481.29 499.142 493.377C499.142 505.463 509.223 515.544 521.31 515.544C533.396 515.544 543.477 505.463 543.477 493.377C543.477 481.29 533.396 471.209 521.31 471.209V471.209Z" fill="white"/>
<path d="M410.937 433.233C398.851 433.233 388.769 443.314 388.769 455.4C388.769 467.487 398.851 477.568 410.937 477.568C423.023 477.568 433.104 467.487 433.104 455.4C433.104 443.314 423.023 433.233 410.937 433.233Z" fill="white"/>
<path d="M455.087 433.233C443 433.233 432.919 443.314 432.919 455.4C432.919 467.487 443 477.568 455.087 477.568C467.173 477.568 477.254 467.487 477.254 455.4C477.254 443.314 467.173 433.233 455.087 433.233Z" fill="white"/>
<path d="M499.236 433.233C487.15 433.233 477.069 443.314 477.069 455.4C477.069 467.487 487.15 477.568 499.236 477.568C511.323 477.568 521.404 467.487 521.404 455.4C521.404 443.314 511.323 433.233 499.236 433.233V433.233Z" fill="white"/>
<path d="M432.698 395.571C420.612 395.571 410.53 405.652 410.53 417.738C410.53 429.824 420.612 439.906 432.698 439.906C444.784 439.906 454.865 429.824 454.865 417.738C454.865 405.652 444.784 395.571 432.698 395.571Z" fill="white"/>
<path d="M476.848 395.571C464.761 395.571 454.68 405.652 454.68 417.738C454.68 429.824 464.761 439.906 476.848 439.906C488.934 439.906 499.015 429.824 499.015 417.738C499.015 405.652 488.934 395.571 476.848 395.571Z" fill="white"/>
<path d="M454.459 357.594C442.373 357.594 432.291 367.676 432.291 379.762C432.291 391.848 442.373 401.929 454.459 401.929C466.545 401.929 476.626 391.848 476.626 379.762C476.626 367.676 466.545 357.594 454.459 357.594Z" fill="white"/>
</g>
<defs>
<clipPath id="clip0">
<path d="M0 0H580V580H0V0Z" fill="white"/>
</clipPath>
</defs>
</svg>
